!!!OTL: Der Spielmannssoh.
!!!OTL-incipit: Guten Abend, guten Abend, mein tausiger Schatz,
!!!ARE: Europa, Mitteleuropa, Deutschland (BRD), Rheinland, Bergisches Land
!!!YOR: 3. S. 178
!!    1840 aufgezeichnet (vor)
!!!SCT: Q1062C
!!!TXL: @@DE
!!!YEM: Copyright 1995, estate of Helmut Schaffrath.
**kern	**text
*ICvox	*
*M6/8	*
*k[b-e-a-d-]	*
*f:	*
!LO:TX:a:t=Allegretto	!
!LO:TX:a:t=Fenſterganglied (bergiſch vor 1840)	!
{16c	Guten
16c	.
=1	=1
8c	Abend,
8f	.
16f	guten
16f	.
(8gqq	.
8f)	Abend,
8e	.
8f	mein
=2	=2
8.g	tauſiger
16a-	.
8g	.
4f}	Schatʒ.
{8f	ich
=3	=3
4g	ſag
8cc	dir
8b-L	gu-
8a-J	.
8g	-ten
=4	=4
(4f	A-
8a-)	.
4g}	-bend,
{8f	komm
=5	=5
4g	du
8cc	ʒu
(8dd-qq	.
8ccL)	mir,
8b-J	.
8cc	ich
=6	=6
(8b-qq	.
8a-)	kom-
8g	-men
8f	ʒu
4e-X}	dir,
{8c	du
=7	=7
4f	ſollſt
8g	mir
(8b-qq	.
8a-L)	Ant-
8gJ	.
8f	-wort
=8	=8
8a-	geben,
8g	.
8f	mein
4.e	.
=9	=9
4f	Engel!
8r	.
4r}	.
==	==
!!!AGN: Fenstergang - Lied
!! Verzierungen (Vorschlaege) ; Melodievergleich zu Q0062, anderes Lied.
!!!ONB: ESAC (Essen Associative Code) Database: BALLADE
!!!AMT: compound duple
!!!AIN: vox
!!!EED: Helmut Schaffrath
!!!EEV: 1.0
!!!source: Deutsche Volkslieder mit ihren Melodien. Herausgegeben vom Deutschen Volksliedarchiv. Dritter Band Balladen. Berlin 1954.
!!!page: 178
!!!ENC: Anna Maria Matuszewska
!!!EEV: 2025/02/21
*-	*-
